;FLAVOR:UltiGCode
;TIME:862
;MATERIAL:975
;MATERIAL2:0
;NOZZLE_DIAMETER:0.4
;Generated with Cura_SteamEngine 3.3.1
M82 ;absolute extrusion mode

G92 E0
G10
;LAYER_COUNT:69
;LAYER:0
M107
G0 F4320 X101.05 Y95.816 Z0.27
;TYPE:SKIRT
G11
G1 F1800 X101.649 Y95.296 E0.07496
G1 X102.298 Y94.84 E0.14992
G1 X102.99 Y94.451 E0.22493
G1 X103.717 Y94.133 E0.29992
G1 X104.473 Y93.89 E0.37496
G1 X105.249 Y93.725 E0.44993
G1 X106.037 Y93.639 E0.52484
G1 X106.5 Y93.625 E0.56861
G1 X116.5 Y93.625 E1.51361
G1 X117.292 Y93.665 E1.58855
G1 X118.077 Y93.784 E1.66358
G1 X118.845 Y93.982 E1.73853
G1 X119.59 Y94.257 E1.81358
G1 X120.303 Y94.604 E1.88851
G1 X120.978 Y95.022 E1.96354
G1 X121.607 Y95.505 E2.03848
G1 X122.184 Y96.05 E2.11349
G1 X122.704 Y96.649 E2.18845
G1 X123.16 Y97.298 E2.2634
G1 X123.549 Y97.99 E2.33842
G1 X123.867 Y98.717 E2.41341
G1 X124.11 Y99.473 E2.48845
G1 X124.275 Y100.249 E2.56342
G1 X124.361 Y101.037 E2.63833
G1 X124.375 Y101.5 E2.6821
G1 X124.375 Y121.5 E4.5721
G1 X124.335 Y122.292 E4.64704
G1 X124.216 Y123.077 E4.72207
G1 X124.018 Y123.845 E4.79702
G1 X123.743 Y124.59 E4.87207
G1 X123.396 Y125.303 E4.947
G1 X122.978 Y125.978 E5.02203
G1 X122.495 Y126.607 E5.09697
G1 X121.95 Y127.184 E5.17198
G1 X121.351 Y127.704 E5.24694
G1 X120.702 Y128.16 E5.32189
G1 X120.01 Y128.549 E5.39691
G1 X119.283 Y128.867 E5.4719
G1 X118.527 Y129.11 E5.54694
G1 X117.751 Y129.275 E5.62191
G1 X116.963 Y129.361 E5.69682
G1 X116.5 Y129.375 E5.74059
G1 X106.5 Y129.375 E6.68559
G1 X105.708 Y129.335 E6.76053
G1 X104.923 Y129.216 E6.83556
G1 X104.155 Y129.018 E6.91051
G1 X103.41 Y128.743 E6.98556
G1 X102.697 Y128.396 E7.06049
G1 X102.022 Y127.978 E7.13552
G1 X101.393 Y127.495 E7.21046
G1 X100.816 Y126.95 E7.28547
G1 X100.296 Y126.351 E7.36043
G1 X99.84 Y125.702 E7.43538
G1 X99.451 Y125.01 E7.5104
G1 X99.133 Y124.283 E7.58539
G1 X98.89 Y123.527 E7.66043
G1 X98.725 Y122.751 E7.7354
G1 X98.639 Y121.963 E7.81031
G1 X98.625 Y121.5 E7.85408
G1 X98.625 Y101.5 E9.74408
G1 X98.665 Y100.708 E9.81902
G1 X98.784 Y99.923 E9.89405
G1 X98.982 Y99.155 E9.969
G1 X99.257 Y98.41 E10.04404
G1 X99.604 Y97.697 E10.11898
G1 X100.022 Y97.022 E10.19401
G1 X100.505 Y96.393 E10.26895
G1 X101.05 Y95.816 E10.34395
G0 F4320 X101.394 Y95.973
G1 F1800 X101.99 Y95.476 E10.41729
G1 X102.634 Y95.044 E10.49057
G1 X103.319 Y94.681 E10.56383
G1 X104.038 Y94.389 E10.63717
G1 X104.783 Y94.174 E10.71044
G1 X105.546 Y94.036 E10.78372
G1 X106.5 Y93.975 E10.87405
G1 X116.5 Y93.975 E11.81905
G1 X117.275 Y94.015 E11.89239
G1 X118.041 Y94.134 E11.96564
G1 X118.791 Y94.332 E12.03895
G1 X119.517 Y94.606 E12.11228
G1 X120.21 Y94.953 E12.18552
G1 X120.864 Y95.37 E12.25881
G1 X121.472 Y95.852 E12.33213
G1 X122.027 Y96.394 E12.40544
G1 X122.524 Y96.99 E12.47878
G1 X122.956 Y97.634 E12.55206
G1 X123.319 Y98.319 E12.62532
G1 X123.611 Y99.038 E12.69865
G1 X123.826 Y99.783 E12.77193
G1 X123.964 Y100.546 E12.8452
G1 X124.025 Y101.5 E12.93554
G1 X124.025 Y121.5 E14.82554
G1 X123.985 Y122.275 E14.89888
G1 X123.866 Y123.041 E14.97213
G1 X123.668 Y123.791 E15.04543
G1 X123.394 Y124.517 E15.11876
G1 X123.047 Y125.21 E15.192
G1 X122.63 Y125.864 E15.2653
G1 X122.148 Y126.472 E15.33862
G1 X121.606 Y127.027 E15.41193
G1 X121.01 Y127.524 E15.48527
G1 X120.366 Y127.956 E15.55855
G1 X119.681 Y128.319 E15.63181
G1 X118.962 Y128.611 E15.70514
G1 X118.217 Y128.826 E15.77842
G1 X117.454 Y128.964 E15.85169
G1 X116.5 Y129.025 E15.94203
G1 X106.5 Y129.025 E16.88703
G1 X105.725 Y128.985 E16.96036
G1 X104.959 Y128.866 E17.03362
G1 X104.209 Y128.668 E17.10692
G1 X103.483 Y128.394 E17.18025
G1 X102.79 Y128.047 E17.25349
G1 X102.136 Y127.63 E17.32679
G1 X101.528 Y127.148 E17.40011
G1 X100.973 Y126.606 E17.47342
G1 X100.476 Y126.01 E17.54675
G1 X100.044 Y125.366 E17.62004
G1 X99.681 Y124.681 E17.6933
G1 X99.389 Y123.962 E17.76663
G1 X99.174 Y123.217 E17.83991
G1 X99.036 Y122.454 E17.91318
G1 X98.975 Y121.5 E18.00352
G1 X98.975 Y101.5 E19.89352
G1 X99.015 Y100.725 E19.96685
G1 X99.134 Y99.959 E20.04011
G1 X99.332 Y99.209 E20.11341
G1 X99.606 Y98.483 E20.18674
G1 X99.953 Y97.79 E20.25998
G1 X100.37 Y97.136 E20.33328
G1 X100.852 Y96.528 E20.4066
G1 X101.394 Y95.973 E20.47991
G0 F4320 X101.737 Y96.134
G1 F1800 X102.329 Y95.662 E20.55146
G1 X102.968 Y95.255 E20.62305
G1 X103.646 Y94.917 E20.69464
G1 X104.355 Y94.653 E20.76614
G1 X105.089 Y94.465 E20.83774
G1 X105.838 Y94.356 E20.90926
G1 X106.5 Y94.325 E20.97189
G1 X116.5 Y94.325 E21.91689
G1 X117.256 Y94.365 E21.98843
G1 X118.004 Y94.484 E22.06001
G1 X118.735 Y94.682 E22.13158
G1 X119.442 Y94.956 E22.20323
G1 X120.115 Y95.302 E22.27474
G1 X120.748 Y95.718 E22.34632
G1 X121.334 Y96.198 E22.4179
G1 X121.866 Y96.737 E22.48947
G1 X122.338 Y97.329 E22.56102
G1 X122.745 Y97.968 E22.63261
G1 X123.083 Y98.646 E22.70421
G1 X123.347 Y99.355 E22.7757
G1 X123.535 Y100.089 E22.8473
G1 X123.644 Y100.838 E22.91883
G1 X123.675 Y101.5 E22.98146
G1 X123.675 Y121.5 E24.87146
G1 X123.635 Y122.256 E24.943
G1 X123.516 Y123.004 E25.01457
G1 X123.318 Y123.735 E25.08614
G1 X123.044 Y124.442 E25.1578
G1 X122.698 Y125.115 E25.22931
G1 X122.282 Y125.748 E25.30089
G1 X121.802 Y126.334 E25.37247
G1 X121.263 Y126.866 E25.44404
G1 X120.671 Y127.338 E25.51559
G1 X120.032 Y127.745 E25.58718
G1 X119.354 Y128.083 E25.65877
G1 X118.645 Y128.347 E25.73027
G1 X117.911 Y128.535 E25.80187
G1 X117.162 Y128.644 E25.87339
G1 X116.5 Y128.675 E25.93602
G1 X106.5 Y128.675 E26.88102
G1 X105.744 Y128.635 E26.95256
G1 X104.996 Y128.516 E27.02414
G1 X104.265 Y128.318 E27.09571
G1 X103.558 Y128.044 E27.16736
G1 X102.885 Y127.698 E27.23887
G1 X102.252 Y127.282 E27.31045
G1 X101.666 Y126.802 E27.38204
G1 X101.134 Y126.263 E27.4536
G1 X100.662 Y125.671 E27.52515
G1 X100.255 Y125.032 E27.59675
G1 X99.917 Y124.354 E27.66834
G1 X99.653 Y123.645 E27.73983
G1 X99.465 Y122.911 E27.81143
G1 X99.356 Y122.162 E27.88296
G1 X99.325 Y121.5 E27.94559
G1 X99.325 Y101.5 E29.83559
G1 X99.365 Y100.744 E29.90713
G1 X99.484 Y99.996 E29.9787
G1 X99.682 Y99.265 E30.05027
G1 X99.956 Y98.558 E30.12193
G1 X100.302 Y97.885 E30.19344
G1 X100.718 Y97.252 E30.26502
G1 X101.198 Y96.666 E30.3366
G1 X101.737 Y96.134 E30.40817
G0 F4320 X101.543 Y96.808
G1 F1800 X102.079 Y96.3 E30.47795
G1 X102.667 Y95.853 E30.54775
G1 X103.3 Y95.472 E30.61757
G1 X103.97 Y95.161 E30.68738
G1 X104.67 Y94.925 E30.75718
G1 X105.391 Y94.766 E30.82696
G1 X106.126 Y94.685 E30.89683
G1 X106.5 Y94.675 E30.93219
G1 X116.5 Y94.675 E31.87719
G1 X117.238 Y94.715 E31.94703
G1 X117.966 Y94.834 E32.01674
G1 X118.678 Y95.032 E32.08658
G1 X119.364 Y95.305 E32.15635
G1 X120.017 Y95.651 E32.22619
G1 X120.629 Y96.065 E32.29601
G1 X121.192 Y96.543 E32.3658
G1 X121.7 Y97.079 E32.43559
G1 X122.147 Y97.667 E32.50539
G1 X122.528 Y98.3 E32.57521
G1 X122.839 Y98.97 E32.64501
G1 X123.075 Y99.67 E32.71482
G1 X123.234 Y100.391 E32.78459
G1 X123.315 Y101.126 E32.85447
G1 X123.325 Y101.5 E32.88982
G1 X123.325 Y121.5 E34.77982
G1 X123.285 Y122.238 E34.84967
G1 X123.166 Y122.966 E34.91938
G1 X122.968 Y123.678 E34.98921
G1 X122.695 Y124.364 E35.05899
G1 X122.349 Y125.017 E35.12882
G1 X121.935 Y125.629 E35.19865
G1 X121.457 Y126.192 E35.26844
G1 X120.921 Y126.7 E35.33822
G1 X120.333 Y127.147 E35.40802
G1 X119.7 Y127.528 E35.47784
G1 X119.03 Y127.839 E35.54765
G1 X118.33 Y128.075 E35.61745
G1 X117.609 Y128.234 E35.68723
G1 X116.874 Y128.315 E35.7571
G1 X116.5 Y128.325 E35.79246
G1 X106.5 Y128.325 E36.73746
G1 X105.762 Y128.285 E36.8073
G1 X105.034 Y128.166 E36.87701
G1 X104.322 Y127.968 E36.94685
G1 X103.636 Y127.695 E37.01662
G1 X102.983 Y127.349 E37.08646
G1 X102.371 Y126.935 E37.15628
G1 X101.808 Y126.457 E37.22607
G1 X101.3 Y125.921 E37.29586
G1 X100.853 Y125.333 E37.36566
G1 X100.472 Y124.7 E37.43548
G1 X100.161 Y124.03 E37.50528
G1 X99.925 Y123.33 E37.57509
G1 X99.766 Y122.609 E37.64486
G1 X99.685 Y121.874 E37.71474
G1 X99.675 Y121.5 E37.75009
G1 X99.675 Y101.5 E39.64009
G1 X99.715 Y100.762 E39.70994
G1 X99.834 Y100.034 E39.77965
G1 X100.032 Y99.322 E39.84948
G1 X100.305 Y98.636 E39.91926
G1 X100.651 Y97.983 E39.98909
G1 X101.065 Y97.371 E40.05892
G1 X101.543 Y96.808 E40.12871
G0 F4320 X101.889 Y96.955
G1 F1800 X102.421 Y96.471 E40.19667
G1 X103.004 Y96.05 E40.26463
G1 X103.631 Y95.696 E40.33267
G1 X104.292 Y95.413 E40.40062
G1 X104.981 Y95.206 E40.46861
G1 X105.689 Y95.076 E40.53663
G1 X106.5 Y95.025 E40.61342
G1 X116.5 Y95.025 E41.55842
G1 X117.218 Y95.065 E41.62638
G1 X117.928 Y95.184 E41.69441
G1 X118.62 Y95.382 E41.76243
G1 X119.285 Y95.655 E41.83036
G1 X119.917 Y96 E41.8984
G1 X120.506 Y96.413 E41.96638
G1 X121.045 Y96.889 E42.03434
G1 X121.529 Y97.421 E42.10231
G1 X121.95 Y98.004 E42.17026
G1 X122.304 Y98.631 E42.23831
G1 X122.587 Y99.292 E42.30625
G1 X122.794 Y99.981 E42.37424
G1 X122.924 Y100.689 E42.44226
G1 X122.975 Y101.5 E42.51905
G1 X122.975 Y121.5 E44.40905
G1 X122.935 Y122.218 E44.47701
G1 X122.816 Y122.928 E44.54504
G1 X122.618 Y123.62 E44.61306
G1 X122.345 Y124.285 E44.68099
G1 X122 Y124.917 E44.74904
G1 X121.587 Y125.506 E44.81702
G1 X121.111 Y126.045 E44.88497
G1 X120.579 Y126.529 E44.95294
G1 X119.996 Y126.95 E45.02089
G1 X119.369 Y127.304 E45.08894
G1 X118.708 Y127.587 E45.15688
G1 X118.019 Y127.794 E45.22487
G1 X117.311 Y127.924 E45.29289
G1 X116.5 Y127.975 E45.36969
G1 X106.5 Y127.975 E46.31469
G1 X105.782 Y127.935 E46.38264
G1 X105.072 Y127.816 E46.45067
G1 X104.38 Y127.618 E46.51869
G1 X103.715 Y127.345 E46.58662
G1 X103.083 Y127 E46.65467
G1 X102.494 Y126.587 E46.72265
G1 X101.955 Y126.111 E46.7906
G1 X101.471 Y125.579 E46.85857
G1 X101.05 Y124.996 E46.92652
G1 X100.696 Y124.369 E46.99457
G1 X100.413 Y123.708 E47.06252
G1 X100.206 Y123.019 E47.1305
G1 X100.076 Y122.311 E47.19853
G1 X100.025 Y121.5 E47.27532
G1 X100.025 Y101.5 E49.16532
G1 X100.065 Y100.782 E49.23327
G1 X100.184 Y100.072 E49.3013
G1 X100.382 Y99.38 E49.36932
G1 X100.655 Y98.715 E49.43725
G1 X101 Y98.083 E49.5053
G1 X101.413 Y97.494 E49.57328
G1 X101.889 Y96.955 E49.64123
G0 F4320 X102.233 Y97.106
G1 F1800 X102.762 Y96.648 E49.70735
G1 X103.34 Y96.253 E49.77351
G1 X103.959 Y95.927 E49.83962
G1 X104.611 Y95.673 E49.90575
G1 X105.288 Y95.496 E49.97188
G1 X105.981 Y95.397 E50.03803
G1 X106.5 Y95.375 E50.08712
G1 X116.5 Y95.375 E51.03212
G1 X117.199 Y95.415 E51.09828
G1 X117.888 Y95.534 E51.16436
G1 X118.559 Y95.732 E51.23047
G1 X119.204 Y96.004 E51.29662
G1 X119.813 Y96.348 E51.36272
G1 X120.379 Y96.76 E51.42887
G1 X120.894 Y97.233 E51.49495
G1 X121.352 Y97.762 E51.56108
G1 X121.747 Y98.34 E51.62723
G1 X122.073 Y98.959 E51.69335
G1 X122.327 Y99.611 E51.75947
G1 X122.504 Y100.288 E51.8256
G1 X122.603 Y100.981 E51.89175
G1 X122.625 Y101.5 E51.94084
G1 X122.625 Y121.5 E53.83084
G1 X122.585 Y122.199 E53.897
G1 X122.466 Y122.888 E53.96308
G1 X122.268 Y123.559 E54.02919
G1 X121.996 Y124.204 E54.09534
G1 X121.652 Y124.813 E54.16144
G1 X121.24 Y125.379 E54.22759
G1 X120.767 Y125.894 E54.29367
G1 X120.238 Y126.352 E54.3598
G1 X119.66 Y126.747 E54.42595
G1 X119.041 Y127.073 E54.49207
G1 X118.389 Y127.327 E54.55819
G1 X117.712 Y127.504 E54.62432
G1 X117.019 Y127.603 E54.69047
G1 X116.5 Y127.625 E54.73956
G1 X106.5 Y127.625 E55.68456
G1 X105.801 Y127.585 E55.75072
G1 X105.112 Y127.466 E55.8168
G1 X104.441 Y127.268 E55.88291
G1 X103.796 Y126.996 E55.94906
G1 X103.187 Y126.652 E56.01516
G1 X102.621 Y126.24 E56.08132
G1 X102.106 Y125.767 E56.1474
G1 X101.648 Y125.238 E56.21352
G1 X101.253 Y124.66 E56.27968
G1 X100.927 Y124.041 E56.34579
G1 X100.673 Y123.389 E56.41191
G1 X100.496 Y122.712 E56.47804
G1 X100.397 Y122.019 E56.54419
G1 X100.375 Y121.5 E56.59328
G1 X100.375 Y101.5 E58.48328
G1 X100.415 Y100.801 E58.54945
G1 X100.534 Y100.112 E58.61552
G1 X100.732 Y99.441 E58.68163
G1 X101.004 Y98.796 E58.74778
G1 X101.348 Y98.187 E58.81388
G1 X101.76 Y97.621 E58.88004
G1 X102.233 Y97.106 E58.94612
G0 F4320 X102.577 Y97.262
G1 F1800 X103.102 Y96.831 E59.01031
G1 X103.674 Y96.464 E59.07453
G1 X104.285 Y96.167 E59.13873
G1 X104.927 Y95.943 E59.20298
G1 X105.59 Y95.797 E59.26714
G1 X106.5 Y95.725 E59.3534
G1 X116.5 Y95.725 E60.2984
G1 X117.178 Y95.765 E60.36259
G1 X117.847 Y95.884 E60.4268
G1 X118.497 Y96.081 E60.49098
G1 X119.12 Y96.353 E60.55522
G1 X119.706 Y96.697 E60.61944
G1 X120.248 Y97.107 E60.68366
G1 X120.738 Y97.577 E60.74782
G1 X121.169 Y98.102 E60.81201
G1 X121.536 Y98.674 E60.87623
G1 X121.833 Y99.285 E60.94043
G1 X122.057 Y99.927 E61.00469
G1 X122.203 Y100.59 E61.06884
G1 X122.275 Y101.5 E61.15511
G1 X122.275 Y121.5 E63.04511
G1 X122.235 Y122.178 E63.10929
G1 X122.116 Y122.847 E63.1735
G1 X121.919 Y123.497 E63.23769
G1 X121.647 Y124.12 E63.30193
G1 X121.303 Y124.706 E63.36614
G1 X120.893 Y125.248 E63.43036
G1 X120.423 Y125.738 E63.49453
G1 X119.898 Y126.169 E63.55872
G1 X119.326 Y126.536 E63.62294
G1 X118.715 Y126.833 E63.68714
G1 X118.073 Y127.057 E63.75139
G1 X117.41 Y127.203 E63.81555
G1 X116.5 Y127.275 E63.90181
G1 X106.5 Y127.275 E64.84681
G1 X105.822 Y127.235 E64.911
G1 X105.153 Y127.116 E64.97521
G1 X104.503 Y126.919 E65.03939
G1 X103.88 Y126.647 E65.10363
G1 X103.294 Y126.303 E65.16785
G1 X102.752 Y125.893 E65.23207
G1 X102.262 Y125.423 E65.29623
G1 X101.831 Y124.898 E65.36042
G1 X101.464 Y124.326 E65.42464
G1 X101.167 Y123.715 E65.48884
G1 X100.943 Y123.073 E65.5531
G1 X100.797 Y122.41 E65.61725
G1 X100.725 Y121.5 E65.70352
G1 X100.725 Y101.5 E67.59352
G1 X100.765 Y100.822 E67.6577
G1 X100.884 Y100.153 E67.72191
G1 X101.081 Y99.503 E67.7861
G1 X101.353 Y98.88 E67.85034
G1 X101.697 Y98.294 E67.91455
G1 X102.107 Y97.752 E67.97877
G1 X102.577 Y97.262 E68.04294
G0 F4320 X102.92 Y97.424
G1 F1800 X103.441 Y97.02 E68.10524
G1 X104.006 Y96.682 E68.16746
G1 X104.608 Y96.416 E68.22965
G1 X105.238 Y96.224 E68.29189
G1 X105.886 Y96.11 E68.35407
G1 X106.5 Y96.075 E68.41218
G1 X116.5 Y96.075 E69.35718
G1 X117.157 Y96.115 E69.41938
G1 X117.805 Y96.234 E69.48164
G1 X118.433 Y96.431 E69.54384
G1 X119.033 Y96.703 E69.6061
G1 X119.596 Y97.045 E69.66835
G1 X120.113 Y97.453 E69.73058
G1 X120.576 Y97.92 E69.79273
G1 X120.98 Y98.441 E69.85503
G1 X121.318 Y99.006 E69.91725
G1 X121.584 Y99.608 E69.97944
G1 X121.776 Y100.238 E70.04168
G1 X121.89 Y100.886 E70.10386
G1 X121.925 Y101.5 E70.16198
G1 X121.925 Y121.5 E72.05198
G1 X121.885 Y122.157 E72.11418
G1 X121.766 Y122.805 E72.17644
G1 X121.569 Y123.433 E72.23864
G1 X121.297 Y124.033 E72.30089
G1 X120.955 Y124.596 E72.36314
G1 X120.547 Y125.113 E72.42538
G1 X120.08 Y125.576 E72.48752
G1 X119.559 Y125.98 E72.54982
G1 X118.994 Y126.318 E72.61204
G1 X118.392 Y126.584 E72.67424
G1 X117.762 Y126.776 E72.73648
G1 X117.114 Y126.89 E72.79865
G1 X116.5 Y126.925 E72.85677
G1 X106.5 Y126.925 E73.80177
G1 X105.843 Y126.885 E73.86397
G1 X105.195 Y126.766 E73.92623
G1 X104.567 Y126.569 E73.98843
G1 X103.967 Y126.297 E74.05068
G1 X103.404 Y125.955 E74.11293
G1 X102.887 Y125.547 E74.17517
G1 X102.424 Y125.08 E74.23731
G1 X102.02 Y124.559 E74.29962
G1 X101.682 Y123.994 E74.36183
G1 X101.416 Y123.392 E74.42403
G1 X101.224 Y122.762 E74.48627
G1 X101.11 Y122.114 E74.54844
G1 X101.075 Y121.5 E74.60656
G1 X101.075 Y101.5 E76.49656
G1 X101.115 Y100.843 E76.55876
G1 X101.234 Y100.195 E76.62102
G1 X101.431 Y99.567 E76.68322
G1 X101.703 Y98.967 E76.74547
G1 X102.045 Y98.404 E76.80773
G1 X102.453 Y97.887 E76.86996
G1 X102.92 Y97.424 E76.93211
G0 F4320 X102.799 Y98.028
G1 F1800 X103.263 Y97.592 E76.99228
G1 X103.778 Y97.217 E77.05248
G1 X104.335 Y96.91 E77.11258
G1 X104.927 Y96.675 E77.17277
G1 X105.544 Y96.516 E77.23298
G1 X106.176 Y96.435 E77.2932
G1 X106.5 Y96.425 E77.32383
G1 X116.5 Y96.425 E78.26883
G1 X117.136 Y96.465 E78.32905
G1 X117.761 Y96.584 E78.38917
G1 X118.367 Y96.781 E78.44939
G1 X118.943 Y97.052 E78.50954
G1 X119.481 Y97.393 E78.56974
G1 X119.972 Y97.799 E78.62995
G1 X120.408 Y98.263 E78.69011
G1 X120.783 Y98.778 E78.75032
G1 X121.09 Y99.335 E78.81042
G1 X121.325 Y99.927 E78.87061
G1 X121.484 Y100.544 E78.93082
G1 X121.565 Y101.176 E78.99103
G1 X121.575 Y101.5 E79.02167
G1 X121.575 Y121.5 E80.91167
G1 X121.535 Y122.136 E80.97189
G1 X121.416 Y122.761 E81.03201
G1 X121.219 Y123.367 E81.09223
G1 X120.948 Y123.943 E81.15238
G1 X120.607 Y124.481 E81.21258
G1 X120.201 Y124.972 E81.27278
