;FLAVOR:UltiGCode
;TIME:3938
;MATERIAL:6225
;MATERIAL2:0
;NOZZLE_DIAMETER:0.6
;Generated with Cura_SteamEngine 3.3.1
M82 ;absolute extrusion mode

G92 E0
G10
;LAYER_COUNT:88
;LAYER:0
M107
G0 F3927.3 X92.118 Y91.697 Z0.4
;TYPE:SKIRT
G11
G1 F1800 X92.595 Y91.241 E0.1399
G1 X93.778 Y90.198 E0.47425
G1 X94.295 Y89.779 E0.61533
G1 X95.556 Y88.837 E0.94902
G1 X96.108 Y88.458 E1.09097
G1 X97.443 Y87.621 E1.42502
G1 X98.16 Y87.22 E1.59918
G1 X100.277 Y86.171 E2.10006
G1 X101.118 Y85.811 E2.294
G1 X102.97 Y85.138 E2.71174
G1 X103.682 Y84.915 E2.86992
G1 X105.203 Y84.514 E3.20339
G1 X105.934 Y84.357 E3.36189
G1 X107.877 Y84.03 E3.7796
G1 X108.867 Y83.924 E3.99068
G1 X111.619 Y83.799 E4.57471
G1 X112.534 Y83.809 E4.7687
G1 X114.106 Y83.913 E5.10269
G1 X114.763 Y83.983 E5.24276
G1 X116.322 Y84.213 E5.57685
G1 X116.974 Y84.336 E5.71751
G1 X118.509 Y84.691 E6.05152
G1 X119.146 Y84.866 E6.19157
G1 X120.647 Y85.343 E6.52546
G1 X121.276 Y85.571 E6.6673
G1 X122.734 Y86.169 E7.00138
G1 X123.335 Y86.444 E7.1415
G1 X124.74 Y87.157 E7.47552
G1 X125.32 Y87.482 E7.61647
G1 X126.662 Y88.306 E7.95032
G1 X127.213 Y88.675 E8.09091
G1 X128.485 Y89.605 E8.42496
G1 X129.002 Y90.016 E8.56498
G1 X130.195 Y91.045 E8.89898
G1 X130.685 Y91.504 E9.04131
G1 X131.79 Y92.627 E9.37532
G1 X132.234 Y93.117 E9.5155
G1 X133.245 Y94.325 E9.84945
G1 X133.647 Y94.846 E9.98896
G1 X134.558 Y96.131 E10.3229
G1 X134.921 Y96.69 E10.4642
G1 X135.725 Y98.045 E10.79822
G1 X136.112 Y98.779 E10.97413
G1 X137.106 Y100.921 E11.47475
G1 X137.445 Y101.772 E11.66895
G1 X138.07 Y103.64 E12.08654
G1 X138.273 Y104.354 E12.24391
G1 X138.636 Y105.887 E12.57789
G1 X138.763 Y106.539 E12.71871
G1 X139.001 Y108.097 E13.05284
G1 X139.075 Y108.759 E13.19406
G1 X139.186 Y110.33 E13.52794
G1 X139.206 Y110.992 E13.66835
G1 X139.19 Y112.567 E14.00227
G1 X139.156 Y113.23 E14.14301
G1 X139.013 Y114.799 E14.47701
G1 X138.896 Y115.621 E14.65303
G1 X138.445 Y117.941 E15.15408
G1 X138.197 Y118.902 E15.36449
G1 X137.47 Y121.149 E15.86516
G1 X137.174 Y121.926 E16.04144
G1 X136.54 Y123.368 E16.37538
G1 X136.247 Y123.968 E16.51694
G1 X135.498 Y125.354 E16.85093
G1 X135.164 Y125.917 E16.98971
G1 X134.307 Y127.239 E17.32371
G1 X133.815 Y127.919 E17.50165
G1 X132.335 Y129.759 E18.00226
G1 X131.79 Y130.372 E18.17615
G1 X130.684 Y131.496 E18.51045
G1 X130.196 Y131.953 E18.65219
G1 X129.005 Y132.981 E18.98573
G1 X128.483 Y133.395 E19.12697
G1 X127.21 Y134.325 E19.46119
G1 X126.665 Y134.691 E19.60037
G1 X125.324 Y135.515 E19.93404
G1 X124.743 Y135.841 E20.07528
G1 X123.337 Y136.555 E20.40958
G1 X122.736 Y136.83 E20.5497
G1 X121.279 Y137.428 E20.88359
G1 X120.413 Y137.728 E21.07789
G1 X117.762 Y138.484 E21.6623
G1 X116.705 Y138.711 E21.8915
G1 X114.368 Y139.055 E22.39228
G1 X113.547 Y139.134 E22.56714
G1 X111.973 Y139.206 E22.90117
G1 X111.306 Y139.21 E23.04258
G1 X109.732 Y139.154 E23.37648
G1 X109.07 Y139.103 E23.51724
G1 X107.505 Y138.92 E23.85128
G1 X106.853 Y138.817 E23.99122
G1 X105.308 Y138.509 E24.3252
G1 X104.661 Y138.353 E24.4663
G1 X103.146 Y137.921 E24.80028
G1 X102.515 Y137.713 E24.94113
G1 X101.04 Y137.16 E25.27509
G1 X100.431 Y136.903 E25.41522
G1 X99.005 Y136.233 E25.74924
G1 X98.415 Y135.926 E25.89024
G1 X97.048 Y135.143 E26.22421
G1 X96.484 Y134.79 E26.36527
G1 X95.185 Y133.899 E26.69922
G1 X94.654 Y133.502 E26.83977
G1 X93.431 Y132.509 E27.17375
G1 X92.935 Y132.071 E27.31403
G1 X91.796 Y130.983 E27.64796
G1 X91.335 Y130.506 E27.78859
G1 X90.287 Y129.329 E28.1227
G1 X89.864 Y128.813 E28.26415
G1 X88.915 Y127.555 E28.59822
G1 X88.537 Y127.01 E28.73883
G1 X87.693 Y125.68 E29.07277
G1 X87.361 Y125.108 E29.21298
G1 X86.627 Y123.715 E29.54678
G1 X86.342 Y123.117 E29.68722
G1 X85.722 Y121.668 E30.02135
G1 X85.485 Y121.043 E30.16306
G1 X84.985 Y119.549 E30.49705
G1 X84.762 Y118.754 E30.6721
G1 X84.241 Y116.45 E31.17288
G1 X84.081 Y115.466 E31.38422
G1 X83.843 Y113.116 E31.88497
G1 X83.801 Y112.288 E32.06073
G1 X83.801 Y110.712 E32.39485
G1 X83.828 Y110.05 E32.53531
G1 X83.955 Y108.48 E32.86923
G1 X84.063 Y107.66 E33.04458
G1 X84.489 Y105.337 E33.54526
G1 X84.729 Y104.365 E33.75752
G1 X85.435 Y102.11 E34.25846
G1 X85.79 Y101.18 E34.46949
G1 X86.763 Y99.028 E34.97018
G1 X87.141 Y98.292 E35.14559
G1 X87.931 Y96.929 E35.47957
G1 X88.283 Y96.374 E35.6189
G1 X89.18 Y95.078 E35.95305
G1 X89.585 Y94.541 E36.09564
G1 X90.584 Y93.324 E36.42943
G1 X91.024 Y92.83 E36.56968
G1 X92.118 Y91.697 E36.90357
G0 F3927.3 X92.5 Y92.065
G1 F1800 X92.946 Y91.639 E37.03433
G1 X94.129 Y90.596 E37.36868
G1 X94.612 Y90.203 E37.50069
G1 X95.873 Y89.261 E37.83438
G1 X96.39 Y88.907 E37.96721
G1 X97.725 Y88.07 E38.30126
G1 X98.395 Y87.695 E38.46403
G1 X100.512 Y86.646 E38.96491
G1 X101.299 Y86.309 E39.14641
G1 X103.151 Y85.636 E39.56415
G1 X103.817 Y85.428 E39.71207
G1 X105.338 Y85.027 E40.04554
G1 X106.022 Y84.88 E40.19386
G1 X107.965 Y84.553 E40.61157
G1 X108.891 Y84.454 E40.809
G1 X111.643 Y84.329 E41.39303
G1 X112.499 Y84.338 E41.57451
G1 X114.071 Y84.442 E41.9085
G1 X114.686 Y84.507 E42.03961
G1 X116.245 Y84.737 E42.37369
G1 X116.855 Y84.853 E42.50533
G1 X118.39 Y85.208 E42.83934
G1 X118.986 Y85.371 E42.97033
G1 X120.487 Y85.848 E43.30423
G1 X121.075 Y86.062 E43.43688
G1 X122.533 Y86.66 E43.77097
G1 X123.095 Y86.917 E43.90198
G1 X124.5 Y87.63 E44.23599
G1 X125.043 Y87.934 E44.36792
G1 X126.385 Y88.758 E44.70178
G1 X126.9 Y89.103 E44.83319
G1 X128.172 Y90.033 E45.16724
G1 X128.655 Y90.418 E45.29819
G1 X129.848 Y91.447 E45.63219
G1 X130.307 Y91.876 E45.76538
G1 X131.412 Y92.999 E46.09938
G1 X131.827 Y93.457 E46.23041
G1 X132.838 Y94.665 E46.56436
G1 X133.214 Y95.152 E46.6948
G1 X134.125 Y96.437 E47.02873
G1 X134.465 Y96.96 E47.16098
G1 X135.269 Y98.315 E47.495
G1 X135.631 Y99.002 E47.65963
G1 X136.625 Y101.144 E48.16024
G1 X136.942 Y101.941 E48.34208
G1 X137.567 Y103.809 E48.75968
G1 X137.757 Y104.476 E48.90671
G1 X138.12 Y106.009 E49.24069
G1 X138.239 Y106.62 E49.37265
G1 X138.477 Y108.178 E49.70678
G1 X138.546 Y108.796 E49.83861
G1 X138.657 Y110.367 E50.17249
G1 X138.676 Y110.987 E50.304
G1 X138.66 Y112.562 E50.63791
G1 X138.628 Y113.182 E50.76953
G1 X138.485 Y114.751 E51.10353
G1 X138.376 Y115.519 E51.26798
G1 X137.925 Y117.839 E51.76903
G1 X137.693 Y118.739 E51.96607
G1 X136.966 Y120.986 E52.46674
G1 X136.689 Y121.713 E52.63168
G1 X136.055 Y123.155 E52.96562
G1 X135.781 Y123.716 E53.09798
G1 X135.032 Y125.102 E53.43197
G1 X134.72 Y125.628 E53.56163
G1 X133.863 Y126.95 E53.89563
G1 X133.402 Y127.587 E54.06233
G1 X131.922 Y129.427 E54.56293
G1 X131.412 Y130 E54.72556
G1 X130.306 Y131.124 E55.05986
G1 X129.849 Y131.552 E55.1926
G1 X128.658 Y132.58 E55.52614
G1 X128.17 Y132.967 E55.65818
G1 X126.897 Y133.897 E55.9924
G1 X126.387 Y134.24 E56.1227
G1 X125.046 Y135.064 E56.45637
G1 X124.503 Y135.368 E56.5883
G1 X123.097 Y136.082 E56.92261
G1 X122.535 Y136.339 E57.05362
G1 X121.078 Y136.937 E57.3875
G1 X120.268 Y137.218 E57.56926
G1 X117.617 Y137.974 E58.15368
G1 X116.628 Y138.187 E58.36816
G1 X114.291 Y138.531 E58.86894
G1 X113.523 Y138.605 E59.03251
G1 X111.949 Y138.677 E59.36655
G1 X111.325 Y138.68 E59.49884
G1 X109.751 Y138.624 E59.83274
G1 X109.131 Y138.577 E59.96455
G1 X107.566 Y138.394 E60.29859
G1 X106.957 Y138.298 E60.4293
G1 X105.412 Y137.99 E60.76328
G1 X104.807 Y137.843 E60.89527
G1 X103.292 Y137.411 E61.22925
G1 X102.701 Y137.217 E61.36112
G1 X101.226 Y136.664 E61.69508
G1 X100.656 Y136.424 E61.82619
G1 X99.23 Y135.754 E62.16021
G1 X98.678 Y135.467 E62.29211
G1 X97.311 Y134.684 E62.62609
G1 X96.784 Y134.352 E62.75813
G1 X95.485 Y133.461 E63.09208
G1 X94.988 Y133.09 E63.22356
G1 X93.765 Y132.097 E63.55754
G1 X93.301 Y131.688 E63.68866
G1 X92.162 Y130.6 E64.02259
G1 X91.73 Y130.153 E64.15438
G1 X90.682 Y128.976 E64.48848
G1 X90.287 Y128.494 E64.6206
G1 X89.338 Y127.236 E64.95467
G1 X88.984 Y126.726 E65.08628
G1 X88.14 Y125.396 E65.42022
G1 X87.83 Y124.86 E65.55149
G1 X87.096 Y123.467 E65.88529
G1 X86.83 Y122.908 E66.01654
G1 X86.21 Y121.459 E66.35066
G1 X85.987 Y120.875 E66.48319
G1 X85.487 Y119.381 E66.81718
G1 X85.279 Y118.637 E66.98096
G1 X84.758 Y116.333 E67.48174
G1 X84.608 Y115.412 E67.67957
G1 X84.37 Y113.062 E68.18031
G1 X84.331 Y112.288 E68.34461
G1 X84.331 Y110.712 E68.67872
G1 X84.356 Y110.092 E68.81027
G1 X84.483 Y108.522 E69.1442
G1 X84.584 Y107.756 E69.30799
G1 X85.01 Y105.433 E69.80868
G1 X85.235 Y104.523 E70.00741
G1 X85.941 Y102.268 E70.50835
G1 X86.272 Y101.398 E70.70569
G1 X87.245 Y99.246 E71.20638
G1 X87.599 Y98.558 E71.37041
G1 X88.389 Y97.195 E71.7044
G1 X88.719 Y96.675 E71.83496
G1 X89.616 Y95.379 E72.1691
G1 X89.995 Y94.877 E72.30245
G1 X90.994 Y93.66 E72.63625
G1 X91.406 Y93.198 E72.76748
G1 X92.5 Y92.065 E73.10138
G0 F3927.3 X92.881 Y92.433
G1 F1800 X93.296 Y92.036 E73.22313
G1 X94.479 Y90.993 E73.55748
G1 X94.929 Y90.628 E73.68032
G1 X96.19 Y89.686 E74.01401
G1 X96.671 Y89.356 E74.13767
G1 X98.006 Y88.519 E74.47172
G1 X98.63 Y88.17 E74.62329
G1 X100.747 Y87.121 E75.12417
G1 X101.48 Y86.807 E75.29322
G1 X103.332 Y86.134 E75.71097
G1 X103.952 Y85.94 E75.84869
G1 X105.473 Y85.539 E76.18216
G1 X106.11 Y85.402 E76.32029
G1 X108.053 Y85.075 E76.738
G1 X108.915 Y84.983 E76.92178
G1 X111.667 Y84.858 E77.50581
G1 X112.464 Y84.867 E77.67478
G1 X114.036 Y84.971 E78.00878
G1 X114.608 Y85.032 E78.13073
G1 X116.167 Y85.262 E78.46481
G1 X116.735 Y85.369 E78.58735
G1 X118.27 Y85.724 E78.92136
G1 X118.825 Y85.876 E79.04335
G1 X120.326 Y86.353 E79.37724
G1 X120.874 Y86.552 E79.50084
G1 X122.332 Y87.15 E79.83493
G1 X122.855 Y87.39 E79.95692
G1 X124.26 Y88.103 E80.29094
G1 X124.766 Y88.386 E80.41385
G1 X126.108 Y89.21 E80.7477
G1 X126.587 Y89.531 E80.86994
G1 X127.859 Y90.461 E81.204
G1 X128.309 Y90.819 E81.3259
G1 X129.502 Y91.848 E81.6599
G1 X129.929 Y92.248 E81.78394
G1 X131.034 Y93.371 E82.11794
G1 X131.421 Y93.797 E82.23996
G1 X132.432 Y95.005 E82.57391
G1 X132.782 Y95.459 E82.69544
G1 X133.693 Y96.744 E83.02937
G1 X134.009 Y97.231 E83.15245
G1 X134.813 Y98.586 E83.48647
G1 X135.15 Y99.225 E83.63962
G1 X136.144 Y101.367 E84.14024
G1 X136.439 Y102.109 E84.30952
G1 X137.064 Y103.977 E84.72711
G1 X137.241 Y104.598 E84.86401
G1 X137.604 Y106.131 E85.19799
G1 X137.715 Y106.7 E85.32089
G1 X137.953 Y108.258 E85.65502
G1 X138.017 Y108.834 E85.77788
G1 X138.128 Y110.405 E86.11177
G1 X138.146 Y110.982 E86.23415
G1 X138.13 Y112.557 E86.56807
G1 X138.1 Y113.133 E86.69035
G1 X137.957 Y114.702 E87.02435
G1 X137.856 Y115.418 E87.17765
G1 X137.405 Y117.738 E87.67869
G1 X137.189 Y118.576 E87.86216
G1 X136.462 Y120.823 E88.36283
G1 X136.204 Y121.5 E88.51643
G1 X135.57 Y122.942 E88.85037
G1 X135.315 Y123.464 E88.97354
G1 X134.566 Y124.85 E89.30753
G1 X134.275 Y125.34 E89.42835
G1 X133.418 Y126.662 E89.76235
G1 X132.989 Y127.254 E89.91734
G1 X131.509 Y129.094 E90.41795
G1 X131.034 Y129.628 E90.56946
G1 X129.928 Y130.752 E90.90376
G1 X129.503 Y131.15 E91.0272
G1 X128.312 Y132.178 E91.36074
G1 X127.858 Y132.539 E91.48371
G1 X126.585 Y133.469 E91.81793
G1 X126.11 Y133.788 E91.93923
G1 X124.769 Y134.612 E92.27291
G1 X124.263 Y134.896 E92.39592
G1 X122.857 Y135.61 E92.73022
G1 X122.334 Y135.849 E92.85213
G1 X120.877 Y136.447 E93.18602
G1 X120.122 Y136.709 E93.35544
G1 X117.471 Y137.465 E93.93986
G1 X116.551 Y137.663 E94.13937
G1 X114.214 Y138.007 E94.64015
G1 X113.499 Y138.076 E94.79243
G1 X111.925 Y138.148 E95.12647
G1 X111.344 Y138.15 E95.24964
G1 X109.77 Y138.094 E95.58354
G1 X109.193 Y138.051 E95.7062
G1 X107.628 Y137.868 E96.04024
G1 X107.06 Y137.778 E96.16216
G1 X105.515 Y137.47 E96.49615
G1 X104.952 Y137.334 E96.61894
G1 X103.437 Y136.902 E96.95292
G1 X102.887 Y136.721 E97.07567
G1 X101.412 Y136.168 E97.40963
G1 X100.881 Y135.944 E97.5318
G1 X99.455 Y135.274 E97.86582
G1 X98.942 Y135.007 E97.98843
G1 X97.575 Y134.224 E98.3224
G1 X97.084 Y133.915 E98.44539
G1 X95.785 Y133.024 E98.77934
G1 X95.322 Y132.679 E98.90175
G1 X94.099 Y131.686 E99.23572
G1 X93.667 Y131.305 E99.35784
G1 X92.528 Y130.217 E99.69177
G1 X92.126 Y129.801 E99.81441
G1 X91.078 Y128.624 E100.14851
G1 X90.71 Y128.175 E100.27159
G1 X89.761 Y126.917 E100.60566
G1 X89.432 Y126.442 E100.72815
G1 X88.588 Y125.112 E101.06209
G1 X88.299 Y124.613 E101.18434
G1 X87.565 Y123.22 E101.51815
G1 X87.317 Y122.7 E101.64028
G1 X86.697 Y121.251 E101.97441
G1 X86.49 Y120.707 E102.09781
G1 X85.99 Y119.213 E102.4318
G1 X85.796 Y118.52 E102.58436
G1 X85.275 Y116.216 E103.08514
G1 X85.135 Y115.359 E103.26924
G1 X84.897 Y113.009 E103.76999
G1 X84.861 Y112.288 E103.92303
G1 X84.861 Y110.712 E104.25714
G1 X84.884 Y110.135 E104.37956
G1 X85.011 Y108.565 E104.71349
G1 X85.105 Y107.851 E104.86616
G1 X85.531 Y105.528 E105.36685
G1 X85.741 Y104.681 E105.55185
G1 X86.447 Y102.426 E106.05279
G1 X86.755 Y101.616 E106.23651
G1 X87.728 Y99.464 E106.7372
G1 X88.058 Y98.824 E106.88985
G1 X88.848 Y97.461 E107.22384
G1 X89.155 Y96.977 E107.34535
G1 X90.052 Y95.681 E107.67949
G1 X90.405 Y95.213 E107.80376
G1 X91.404 Y93.996 E108.13756
G1 X91.787 Y93.566 E108.25964
G1 X92.881 Y92.433 E108.59353
G0 F3927.3 X93.262 Y92.801
G1 F1800 X93.647 Y92.434 E108.70629
G1 X94.83 Y91.391 E109.04064
G1 X95.246 Y91.052 E109.15441
G1 X96.507 Y90.11 E109.4881
G1 X96.953 Y89.805 E109.60265
G1 X98.288 Y88.968 E109.93669
G1 X98.866 Y88.645 E110.07706
G1 X100.983 Y87.596 E110.57794
G1 X101.661 Y87.305 E110.73436
G1 X103.513 Y86.632 E111.1521
G1 X104.087 Y86.453 E111.27957
G1 X105.608 Y86.052 E111.61304
G1 X106.197 Y85.925 E111.74078
G1 X108.14 Y85.598 E112.15849
G1 X108.939 Y85.513 E112.32883
G1 X111.691 Y85.388 E112.91286
G1 X112.429 Y85.395 E113.06932
G1 X114.001 Y85.499 E113.40331
G1 X114.531 Y85.556 E113.51632
G1 X116.09 Y85.786 E113.85041
G1 X116.616 Y85.885 E113.96388
G1 X118.151 Y86.24 E114.29789
G1 X118.664 Y86.381 E114.41067
G1 X120.165 Y86.858 E114.74457
G1 X120.673 Y87.043 E114.85918
G1 X122.131 Y87.641 E115.19327
G1 X122.615 Y87.862 E115.30607
G1 X124.02 Y88.575 E115.64009
G1 X124.489 Y88.837 E115.75398
G1 X125.831 Y89.661 E116.08783
G1 X126.274 Y89.959 E116.20102
G1 X127.546 Y90.889 E116.53507
G1 X127.963 Y91.22 E116.64794
G1 X129.156 Y92.249 E116.98194
G1 X129.551 Y92.619 E117.09668
G1 X130.656 Y93.742 E117.43068
G1 X131.014 Y94.137 E117.5437
G1 X132.025 Y95.345 E117.87765
G1 X132.35 Y95.765 E117.99023
G1 X133.261 Y97.05 E118.32417
G1 X133.554 Y97.501 E118.43818
G1 X134.358 Y98.856 E118.77221
G1 X134.669 Y99.448 E118.91398
G1 X135.663 Y101.59 E119.41459
G1 X135.937 Y102.277 E119.57139
G1 X136.562 Y104.145 E119.98899
G1 X136.726 Y104.72 E120.11575
G1 X137.089 Y106.253 E120.44973
G1 X137.191 Y106.78 E120.56353
G1 X137.429 Y108.338 E120.89766
G1 X137.489 Y108.871 E121.01137
G1 X137.6 Y110.442 E121.34525
G1 X137.616 Y110.976 E121.45851
G1 X137.6 Y112.551 E121.79242
G1 X137.573 Y113.085 E121.90578
G1 X137.43 Y114.654 E122.23978
G1 X137.335 Y115.317 E122.38177
G1 X136.884 Y117.637 E122.88282
G1 X136.684 Y118.412 E123.0525
G1 X135.957 Y120.659 E123.55318
G1 X135.719 Y121.286 E123.69536
G1 X135.085 Y122.728 E124.02931
G1 X134.848 Y123.212 E124.14355
G1 X134.099 Y124.598 E124.47755
G1 X133.83 Y125.052 E124.58942
G1 X132.973 Y126.374 E124.92342
G1 X132.576 Y126.922 E125.06688
G1 X131.096 Y128.762 E125.56749
G1 X130.656 Y129.257 E125.70789
G1 X129.55 Y130.381 E126.0422
G1 X129.157 Y130.749 E126.15634
G1 X127.966 Y131.777 E126.48988
G1 X127.545 Y132.112 E126.60394
G1 X126.272 Y133.042 E126.93816
G1 X125.832 Y133.337 E127.05046
G1 X124.491 Y134.161 E127.38414
G1 X124.023 Y134.423 E127.49784
G1 X122.617 Y135.137 E127.83215
G1 X122.132 Y135.359 E127.94523
G1 X120.675 Y135.957 E128.27912
G1 X119.977 Y136.199 E128.43573
G1 X117.326 Y136.955 E129.02015
G1 X116.474 Y137.138 E129.20489
G1 X114.137 Y137.482 E129.70568
G1 X113.475 Y137.546 E129.84668
G1 X111.901 Y137.618 E130.18071
G1 X111.362 Y137.621 E130.29498
G1 X109.788 Y137.565 E130.62888
G1 X109.255 Y137.524 E130.74221
G1 X107.69 Y137.341 E131.07625
G1 X107.164 Y137.258 E131.18914
G1 X105.619 Y136.95 E131.52313
G1 X105.097 Y136.824 E131.63697
G1 X103.582 Y136.392 E131.97095
G1 X103.073 Y136.224 E132.08459
G1 X101.598 Y135.671 E132.41854
G1 X101.107 Y135.464 E132.53151
G1 X99.681 Y134.794 E132.86552
G1 X99.205 Y134.547 E132.97921
